svg/system/transformation_fill.svg

<?xml version="1.0" encoding="UTF-8"?>
<svg width="24px" height="24px" viewBox="0 0 24 24" version="1.1" xmlns="http://www.w3.org/2000/svg" xmlns:xlink="http://www.w3.org/1999/xlink">
    <title>transformation_fill</title>
    <g id="页面-1" stroke="none" stroke-width="1" fill="none" fill-rule="evenodd">
        <g id="System" transform="translate(-96.000000, -432.000000)" fill-rule="nonzero">
            <g id="transformation_fill" transform="translate(96.000000, 432.000000)">
                 <path d="M24,0 L24,24 L0,24 L0,0 L24,0 Z M12.5934901,23.257841 L12.5819402,23.2595131 L12.5108777,23.2950439 L12.4918791,23.2987469 L12.4918791,23.2987469 L12.4767152,23.2950439 L12.4056548,23.2595131 C12.3958229,23.2563662 12.3870493,23.2590235 12.3821421,23.2649074 L12.3780323,23.275831 L12.360941,23.7031097 L12.3658947,23.7234994 L12.3769048,23.7357139 L12.4804777,23.8096931 L12.4953491,23.8136134 L12.4953491,23.8136134 L12.5071152,23.8096931 L12.6106902,23.7357139 L12.6232938,23.7196733 L12.6232938,23.7196733 L12.6266527,23.7031097 L12.609561,23.275831 C12.6075724,23.2657013 12.6010112,23.2592993 12.5934901,23.257841 L12.5934901,23.257841 Z M12.8583906,23.1452862 L12.8445485,23.1473072 L12.6598443,23.2396597 L12.6498822,23.2499052 L12.6498822,23.2499052 L12.6471943,23.2611114 L12.6650943,23.6906389 L12.6699349,23.7034178 L12.6699349,23.7034178 L12.678386,23.7104931 L12.8793402,23.8032389 C12.8914285,23.8068999 12.9022333,23.8029875 12.9078286,23.7952264 L12.9118235,23.7811639 L12.8776777,23.1665331 C12.8752882,23.1545897 12.8674102,23.1470016 12.8583906,23.1452862 L12.8583906,23.1452862 Z M12.1430473,23.1473072 C12.1332178,23.1423925 12.1221763,23.1452606 12.1156365,23.1525954 L12.1099173,23.1665331 L12.0757714,23.7811639 C12.0751323,23.7926639 12.0828099,23.8018602 12.0926481,23.8045676 L12.108256,23.8032389 L12.3092106,23.7104931 L12.3186497,23.7024347 L12.3186497,23.7024347 L12.3225043,23.6906389 L12.340401,23.2611114 L12.337245,23.2485176 L12.337245,23.2485176 L12.3277531,23.2396597 L12.1430473,23.1473072 Z" id="MingCute" fill-rule="nonzero"></path>
                <path d="M19.9999979,10.5 C20.7797646,10.5 21.4204549,11.0949121 21.493132,11.8555442 L21.4999979,12 L21.4999979,16 C21.4999979,18.4142914 19.5987809,20.3844901 17.2118353,20.4951021 L16.9999979,20.5 L4.00004,20.5 C3.39335,20.5 2.84639,20.1345 2.61422,19.574 C2.4013975,19.0602083 2.49150354,18.4752451 2.83843068,18.05088 L2.93938,17.9393 L5.93938,14.9393 C6.52517,14.3536 7.47492,14.3536 8.0607,14.9393 C8.60987812,15.4884875 8.64420176,16.3575969 8.1636709,16.9467746 L8.0607,17.0607 L7.62136,17.5 L16.9999979,17.5 C17.7797646,17.5 18.4204549,16.9050879 18.493132,16.1444558 L18.4999979,16 L18.4999979,12 C18.4999979,11.1716 19.1716,10.5 19.9999979,10.5 Z M20,3.5 C20.6067,3.5 21.1537,3.86546 21.3859,4.42597 C21.5986583,4.93978 21.5085806,5.52471951 21.1616509,5.94908054 L21.0607,6.06066 L18.0607,9.06066 C17.4749,9.64645 16.5252,9.64645 15.9394,9.06066 C15.3902125,8.51148187 15.3558883,7.64242582 15.8364273,7.05326295 L15.9394,6.93934 L16.3787,6.5 L7.00004,6.5 C6.22035059,6.5 5.57959211,7.09488554 5.50690665,7.85553954 L5.50004,8 L5.50004,12 C5.50004,12.8284 4.82847,13.5 4.00004,13.5 C3.22035059,13.5 2.57959211,12.9050879 2.50690665,12.1444558 L2.50004,12 L2.50004,8 C2.50004,5.585728 4.40127781,3.61551099 6.78820441,3.50489799 L7.00004,3.5 L20,3.5 Z" id="形状" fill="#09244B"></path>
            </g>
        </g>
    </g>
</svg>

<svg xmlns="http://www.w3.org/2000/svg" width="24" height="24"><g fill="none" fill-rule="nonzero"><path d="M24 0v24H0V0h24ZM12.593 23.258l-.011.002-.071.035-.02.004-.014-.004-.071-.035c-.01-.004-.019-.001-.024.005l-.004.01-.017.428.005.02.01.013.104.074.015.004.012-.004.104-.074.012-.016.004-.017-.017-.427c-.002-.01-.009-.017-.017-.018Zm.265-.113-.013.002-.185.093-.01.01-.003.011.018.43.005.012.008.007.201.093c.012.004.023 0 .029-.008l.004-.014-.034-.614c-.003-.012-.01-.02-.02-.022Zm-.715.002a.023.023 0 0 0-.027.006l-.006.014-.034.614c0 .012.007.02.017.024l.015-.002.201-.093.01-.008.004-.011.017-.43-.003-.012-.01-.01-.184-.092Z"/><path fill="#09244B" d="M20 10.5a1.5 1.5 0 0 1 1.493 1.356L21.5 12v4a4.5 4.5 0 0 1-4.288 4.495L17 20.5H4a1.5 1.5 0 0 1-1.162-2.45l.101-.11 3-3a1.5 1.5 0 0 1 2.225 2.007l-.103.114-.44.439H17a1.5 1.5 0 0 0 1.493-1.356L18.5 16v-4a1.5 1.5 0 0 1 1.5-1.5Zm0-7a1.5 1.5 0 0 1 1.162 2.45l-.101.11-3 3a1.5 1.5 0 0 1-2.225-2.007l.103-.114.44-.439H7a1.5 1.5 0 0 0-1.493 1.356L5.5 8v4a1.5 1.5 0 0 1-2.993.144L2.5 12V8a4.5 4.5 0 0 1 4.288-4.495L7 3.5h13Z"/></g></svg>
